; generated by PrusaSlicer 2.8.0+win64 on 2024-07-18 at 13:59:22 UTC


;
;
; 

; external perimeters extrusion width = 0.45mm
; perimeters extrusion width = 0.45mm
; infill extrusion width = 0.45mm
; solid infill extrusion width = 0.45mm
; top infill extrusion width = 0.40mm
; support material extrusion width = 0.35mm
; first layer extrusion width = 0.42mm

M73 P0 R120
M73 Q0 S123
M201 X1000 Y1000 Z200 E5000 ; sets maximum accelerations, mm/sec^2
M203 X200 Y200 Z12 E120 ; sets maximum feedrates, mm / sec
M204 S1250 T1250 ; sets acceleration (S) and retract acceleration (R), mm/sec^2
M205 X8.00 Y8.00 Z0.40 E4.50 ; sets the jerk limits, mm/sec
M205 S0 T0 ; sets the minimum extruding and travel feed rate, mm/sec

; printing object jugglingGloveCap.stl id:0 copy 0
; stop printing object jugglingGloveCap.stl id:0 copy 0

;TYPE:Custom
M862.3 P "MK3S" ; printer model check
M862.1 P0.4 ; nozzle diameter check
M115 U3.14.0 ; tell printer latest fw version
G90 ; use absolute coordinates
M83 ; extruder relative mode
M104 S215 ; set extruder temp
M140 S60 ; set bed temp
M190 S60 ; wait for bed temp
M109 S215 ; wait for extruder temp
G28 W ; home all without mesh bed level
G80 X50.4671 Y74.3016 W149.066 H61.3968 ; mesh bed levelling

G1 Z0.2 F720
G1 Y-3 F1000 ; go outside print area
G92 E0
G1 X60 E9 F1000 ; intro line
G1 X100 E12.5 F1000 ; intro line

G92 E0
M221 S95

; Don't change E values below. Excessive value can damage the printer.

M907 E538 ; set extruder motor current
G21 ; set units to millimeters
G90 ; use absolute coordinates
M83 ; use relative distances for extrusion

M900 K0.05 ; Filament gcode LA 1.5
M900 K30 ; Filament gcode LA 1.0




M107
;LAYER_CHANGE
;Z:0.2
;HEIGHT:0.2
G1 E-.8 F2100
G1 Z.6 F720
G1 X52.079 Y79.242 F10800
G1 Z.2 F720
G1 E.8 F2100
M204 S800
;TYPE:Skirt/Brim
;WIDTH:0.42
G1 F1200
G1 X52.745 Y79.107 E.02131
G1 X154.256 Y74.492 E3.18609
G1 X194.849 Y74.49 E1.27277
G1 X196.097 Y74.881 E.04101
M73 Q0 S122
G1 X196.972 Y76.148 E.04828
G1 X199.279 Y85.376 E.29824
G1 X199.344 Y85.907 E.01677
G1 X199.344 Y128.707 E1.34196
G1 X198.954 Y129.955 E.041
G1 X197.921 Y130.758 E.04102
G1 X197.255 Y130.893 E.02131
G1 X95.644 Y135.51 E3.18923
G1 X55.151 Y135.51 E1.26963
G1 X53.903 Y135.119 E.04101
G1 X53.028 Y133.852 E.04828
G1 X50.721 Y124.624 E.29824
G1 X50.656 Y124.093 E.01677
G1 X50.656 Y81.293 E1.34196
G1 X51.047 Y80.045 E.04101
G1 X52.032 Y79.279 E.03912
M204 S1000
;WIPE_START
G1 F8640
G1 X52.079 Y79.242 E-.01381
G1 X52.745 Y79.107 E-.15691
G1 X55.467 Y78.983 E-.62928
;WIPE_END
G1 Z.6 F720
; printing object jugglingGloveCap.stl id:0 copy 0
G1 X194.849 Y85.907 F10800
G1 Z.2 F720
G1 E.8 F2100
M204 S800
;TYPE:Support material
G1 F1200
G1 X197.156 Y85.907 E.07233
G1 X197.156 Y128.707 E1.34196
G1 X146.4 Y128.707 E1.59142
M73 P0 R119
G1 X146.4 Y131.014 E.07233
G1 X95.644 Y131.014 E1.59142
G1 X95.644 Y133.321 E.07233
G1 X55.151 Y133.321 E1.26963
G1 X55.151 Y124.093 E.28934
G1 X52.844 Y124.093 E.07233
G1 X52.844 Y81.293 E1.34196
G1 X103.6 Y81.293 E1.59142
G1 X103.6 Y78.986 E.07233
G1 X154.356 Y78.986 E1.59142
G1 X154.356 Y76.679 E.07233
G1 X194.849 Y76.679 E1.26963
G1 X194.849 Y85.85 E.28755
M204 S1000
G1 X194.849 Y85.85 F10800
G1 X62.551 Y119.831
M204 S800
G1 F1200
G1 X62.8 Y119.82 E.00781
G1 X63.093 Y120.088 E.01245
G1 X63.305 Y124.802 E.14795
G1 X68.019 Y124.591 E.14795
G1 X68.312 Y124.859 E.01245
G1 X68.42 Y127.254 E.07517
G1 X68.151 Y127.548 E.01249
G1 X60.761 Y127.879 E.23194
G1 X60.468 Y127.611 E.01245
G1 X60.136 Y120.221 E.23194
G1 X60.405 Y119.927 E.01249
G1 X62.495 Y119.833 E.0656
M204 S1000
G1 X62.495 Y119.833 F10800
G1 X103.76 Y117.984
M204 S800
G1 F1200
G1 X104.009 Y117.973 E.00781
G1 X104.302 Y118.241 E.01245
G1 X104.633 Y125.631 E.23194
G1 X104.365 Y125.925 E.01247
G1 X96.975 Y126.256 E.23194
G1 X96.681 Y125.988 E.01247
G1 X96.574 Y123.593 E.07517
G1 X96.842 Y123.299 E.01247
G1 X101.556 Y123.088 E.14795
G1 X101.345 Y118.374 E.14795
G1 X101.613 Y118.08 E.01247
G1 X103.704 Y117.987 E.06563
M204 S1000
;WIPE_START
G1 F8640
G1 X101.613 Y118.08 E-.4833
G1 X101.345 Y118.374 E-.09186
G1 X101.389 Y119.347 E-.22484
;WIPE_END
G1 Z.6 F720
G1 X65.978 Y87.395 F10800
G1 Z.2 F720
G1 E.8 F2100
M204 S800
G1 F1200
G1 X66.351 Y87.378 E.01171
G1 X66.645 Y87.647 E.01249
G1 X66.752 Y90.042 E.07517
G1 X66.484 Y90.335 E.01245
G1 X61.769 Y90.547 E.14798
G1 X61.981 Y95.261 E.14795
G1 X61.712 Y95.554 E.01247
G1 X59.317 Y95.661 E.07517
G1 X59.024 Y95.393 E.01245
G1 X58.692 Y88.003 E.23194
G1 X58.961 Y87.709 E.01249
G1 X65.921 Y87.397 E.21845
M204 S1000
G1 X65.921 Y87.397 F10800
G1 X102.191 Y85.772
M204 S800
G1 F1200
G1 X102.565 Y85.755 E.01174
G1 X102.858 Y86.024 E.01247
G1 X103.189 Y93.414 E.23194
G1 X102.921 Y93.707 E.01245
G1 X100.526 Y93.815 E.07517
G1 X100.232 Y93.546 E.01249
G1 X100.021 Y88.832 E.14795
G1 X95.307 Y89.043 E.14795
G1 X95.013 Y88.775 E.01247
G1 X94.906 Y86.38 E.07517
G1 X95.174 Y86.086 E.01247
G1 X102.135 Y85.774 E.21848
M204 S1000
G1 X102.135 Y85.774 F10800
G1 X196.645 Y128.537
M204 S800
G1 F1200
G1 X196.645 Y86.246 E1.326
G1 X196.226 Y86.246 E.01314
G1 X196.226 Y128.368 E1.32071
G1 X195.807 Y128.368 E.01314
G1 X195.807 Y86.246 E1.32071
G1 X195.388 Y86.246 E.01314
G1 X195.388 Y128.368 E1.32071
G1 X194.969 Y128.368 E.01314
G1 X194.969 Y86.246 E1.32071
G1 X194.55 Y86.246 E.01314
G1 X194.55 Y128.368 E1.32071
G1 X194.131 Y128.368 E.01314
M73 Q0 S121
G1 X194.131 Y77.018 E1.61004
G1 X193.712 Y77.018 E.01314
M73 P1 R119
M73 Q1 S121
G1 X193.712 Y128.368 E1.61004
G1 X193.293 Y128.368 E.01314
G1 X193.293 Y77.018 E1.61004
G1 X192.874 Y77.018 E.01314
G1 X192.874 Y128.368 E1.61004
G1 X192.455 Y128.368 E.01314
G1 X192.455 Y77.018 E1.61004
G1 X192.036 Y77.018 E.01314
G1 X192.036 Y128.368 E1.61004
G1 X191.617 Y128.368 E.01314
G1 X191.617 Y77.018 E1.61004
G1 X191.198 Y77.018 E.01314
M73 P1 R118
G1 X191.198 Y128.368 E1.61004
G1 X190.779 Y128.368 E.01314
G1 X190.779 Y77.018 E1.61004
G1 X190.36 Y77.018 E.01314
G1 X190.36 Y128.368 E1.61004
G1 X189.941 Y128.368 E.01314
G1 X189.941 Y77.018 E1.61004
G1 X189.522 Y77.018 E.01314
G1 X189.522 Y128.368 E1.61004
G1 X189.103 Y128.368 E.01314
G1 X189.103 Y77.018 E1.61004
G1 X188.685 Y77.018 E.01311
G1 X188.685 Y128.368 E1.61004
G1 X188.266 Y128.368 E.01314
G1 X188.266 Y77.018 E1.61004
G1 X187.847 Y77.018 E.01314
G1 X187.847 Y128.368 E1.61004
G1 X187.428 Y128.368 E.01314
G1 X187.428 Y77.018 E1.61004
G1 X187.009 Y77.018 E.01314
G1 X187.009 Y128.368 E1.61004
G1 X186.59 Y128.368 E.01314
G1 X186.59 Y77.018 E1.61004
G1 X186.171 Y77.018 E.01314
G1 X186.171 Y128.368 E1.61004
G1 X185.752 Y128.368 E.01314
G1 X185.752 Y77.018 E1.61004
G1 X185.333 Y77.018 E.01314
G1 X185.333 Y128.368 E1.61004
G1 X184.914 Y128.368 E.01314
G1 X184.914 Y77.018 E1.61004
G1 X184.495 Y77.018 E.01314
M73 Q1 S120
G1 X184.495 Y128.368 E1.61004
G1 X184.076 Y128.368 E.01314
G1 X184.076 Y77.018 E1.61004
G1 X183.657 Y77.018 E.01314
G1 X183.657 Y128.368 E1.61004
G1 X183.238 Y128.368 E.01314
G1 X183.238 Y77.018 E1.61004
G1 X182.819 Y77.018 E.01314
G1 X182.819 Y128.368 E1.61004
G1 X182.4 Y128.368 E.01314
G1 X182.4 Y77.018 E1.61004
G1 X181.981 Y77.018 E.01314
M73 P2 R118
M73 Q2 S120
G1 X181.981 Y128.368 E1.61004
G1 X181.562 Y128.368 E.01314
M73 P2 R117
G1 X181.562 Y77.018 E1.61004
G1 X181.143 Y77.018 E.01314
G1 X181.143 Y128.368 E1.61004
G1 X180.724 Y128.368 E.01314
G1 X180.724 Y77.018 E1.61004
G1 X180.305 Y77.018 E.01314
G1 X180.305 Y128.368 E1.61004
G1 X179.886 Y128.368 E.01314
G1 X179.886 Y77.018 E1.61004
G1 X179.467 Y77.018 E.01314
G1 X179.467 Y128.368 E1.61004
G1 X179.048 Y128.368 E.01314
G1 X179.048 Y77.018 E1.61004
G1 X178.629 Y77.018 E.01314
G1 X178.629 Y128.368 E1.61004
G1 X178.21 Y128.368 E.01314
G1 X178.21 Y77.018 E1.61004
G1 X177.791 Y77.018 E.01314
G1 X177.791 Y128.368 E1.61004
G1 X177.372 Y128.368 E.01314
G1 X177.372 Y77.018 E1.61004
G1 X176.953 Y77.018 E.01314
G1 X176.953 Y128.368 E1.61004
G1 X176.534 Y128.368 E.01314
G1 X176.534 Y77.018 E1.61004
G1 X176.115 Y77.018 E.01314
G1 X176.115 Y128.368 E1.61004
G1 X175.696 Y128.368 E.01314
G1 X175.696 Y77.018 E1.61004
G1 X175.277 Y77.018 E.01314
G1 X175.277 Y128.368 E1.61004
G1 X174.858 Y128.368 E.01314
M73 Q2 S119
G1 X174.858 Y77.018 E1.61004
G1 X174.439 Y77.018 E.01314
G1 X174.439 Y128.368 E1.61004
G1 X174.02 Y128.368 E.01314
G1 X174.02 Y77.018 E1.61004
G1 X173.601 Y77.018 E.01314
G1 X173.601 Y128.368 E1.61004
G1 X173.182 Y128.368 E.01314
G1 X173.182 Y77.018 E1.61004
G1 X172.763 Y77.018 E.01314
G1 X172.763 Y128.368 E1.61004
G1 X172.344 Y128.368 E.01314
G1 X172.344 Y77.018 E1.61004
G1 X171.925 Y77.018 E.01314
G1 X171.925 Y128.368 E1.61004
M73 P2 R116
G1 X171.506 Y128.368 E.01314
G1 X171.506 Y77.018 E1.61004
G1 X171.087 Y77.018 E.01314
G1 X171.087 Y128.368 E1.61004
G1 X170.668 Y128.368 E.01314
M73 P3 R116
G1 X170.668 Y77.018 E1.61004
G1 X170.25 Y77.018 E.01311
G1 X170.25 Y128.368 E1.61004
G1 X169.831 Y128.368 E.01314
M73 Q3 S119
G1 X169.831 Y77.018 E1.61004
G1 X169.412 Y77.018 E.01314
G1 X169.412 Y128.368 E1.61004
G1 X168.993 Y128.368 E.01314
G1 X168.993 Y77.018 E1.61004
G1 X168.574 Y77.018 E.01314
G1 X168.574 Y128.368 E1.61004
G1 X168.155 Y128.368 E.01314
G1 X168.155 Y77.018 E1.61004
G1 X167.736 Y77.018 E.01314
G1 X167.736 Y128.368 E1.61004
G1 X167.317 Y128.368 E.01314
G1 X167.317 Y77.018 E1.61004
G1 X166.898 Y77.018 E.01314
G1 X166.898 Y128.368 E1.61004
G1 X166.479 Y128.368 E.01314
G1 X166.479 Y77.018 E1.61004
G1 X166.06 Y77.018 E.01314
G1 X166.06 Y128.368 E1.61004
G1 X165.641 Y128.368 E.01314
G1 X165.641 Y77.018 E1.61004
G1 X165.222 Y77.018 E.01314
M73 Q3 S118
G1 X165.222 Y128.368 E1.61004
G1 X164.803 Y128.368 E.01314
G1 X164.803 Y77.018 E1.61004
G1 X164.384 Y77.018 E.01314
G1 X164.384 Y128.368 E1.61004
G1 X163.965 Y128.368 E.01314
G1 X163.965 Y77.018 E1.61004
G1 X163.546 Y77.018 E.01314
G1 X163.546 Y128.368 E1.61004
G1 X163.127 Y128.368 E.01314
G1 X163.127 Y77.018 E1.61004
G1 X162.708 Y77.018 E.01314
G1 X162.708 Y128.368 E1.61004
G1 X162.289 Y128.368 E.01314
G1 X162.289 Y77.018 E1.61004
G1 X161.87 Y77.018 E.01314
M73 P3 R115
G1 X161.87 Y128.368 E1.61004
G1 X161.451 Y128.368 E.01314
G1 X161.451 Y77.018 E1.61004
G1 X161.032 Y77.018 E.01314
G1 X161.032 Y128.368 E1.61004
G1 X160.613 Y128.368 E.01314
G1 X160.613 Y77.018 E1.61004
G1 X160.194 Y77.018 E.01314
G1 X160.194 Y128.368 E1.61004
G1 X159.775 Y128.368 E.01314
G1 X159.775 Y77.018 E1.61004
G1 X159.356 Y77.018 E.01314
G1 X159.356 Y128.368 E1.61004
G1 X158.937 Y128.368 E.01314
M73 P4 R115
G1 X158.937 Y77.018 E1.61004
G1 X158.518 Y77.018 E.01314
G1 X158.518 Y128.368 E1.61004
G1 X158.099 Y128.368 E.01314
M73 Q4 S118
G1 X158.099 Y77.018 E1.61004
G1 X157.68 Y77.018 E.01314
G1 X157.68 Y128.368 E1.61004
G1 X157.261 Y128.368 E.01314
G1 X157.261 Y77.018 E1.61004
G1 X156.842 Y77.018 E.01314
G1 X156.842 Y128.368 E1.61004
G1 X156.423 Y128.368 E.01314
G1 X156.423 Y77.018 E1.61004
G1 X156.004 Y77.018 E.01314
G1 X156.004 Y128.368 E1.61004
G1 X155.585 Y128.368 E.01314
M73 Q4 S117
G1 X155.585 Y77.018 E1.61004
G1 X155.166 Y77.018 E.01314
G1 X155.166 Y128.368 E1.61004
G1 X154.747 Y128.368 E.01314
G1 X154.747 Y77.018 E1.61004
G1 X154.695 Y77.018 E.00163
G1 X154.695 Y79.325 E.07233
G1 X154.328 Y79.325 E.01151
G1 X154.328 Y128.368 E1.53771
G1 X153.909 Y128.368 E.01314
G1 X153.909 Y79.325 E1.53771
G1 X153.49 Y79.325 E.01314
G1 X153.49 Y128.368 E1.53771
G1 X153.071 Y128.368 E.01314
G1 X153.071 Y79.325 E1.53771
G1 X152.652 Y79.325 E.01314
G1 X152.652 Y128.368 E1.53771
G1 X152.234 Y128.368 E.01311
M73 P4 R114
G1 X152.234 Y79.325 E1.53771
G1 X151.815 Y79.325 E.01314
G1 X151.815 Y128.368 E1.53771
G1 X151.396 Y128.368 E.01314
G1 X151.396 Y79.325 E1.53771
G1 X150.977 Y79.325 E.01314
G1 X150.977 Y128.368 E1.53771
G1 X150.558 Y128.368 E.01314
G1 X150.558 Y79.325 E1.53771
G1 X150.139 Y79.325 E.01314
G1 X150.139 Y128.368 E1.53771
G1 X149.72 Y128.368 E.01314
G1 X149.72 Y79.325 E1.53771
G1 X149.301 Y79.325 E.01314
G1 X149.301 Y128.368 E1.53771
G1 X148.882 Y128.368 E.01314
G1 X148.882 Y79.325 E1.53771
G1 X148.463 Y79.325 E.01314
G1 X148.463 Y128.368 E1.53771
G1 X148.044 Y128.368 E.01314
G1 X148.044 Y79.325 E1.53771
G1 X147.625 Y79.325 E.01314
G1 X147.625 Y128.368 E1.53771
G1 X147.206 Y128.368 E.01314
G1 X147.206 Y79.325 E1.53771
G1 X146.787 Y79.325 E.01314
M73 P5 R114
G1 X146.787 Y128.368 E1.53771
G1 X146.368 Y128.368 E.01314
G1 X146.368 Y79.325 E1.53771
G1 X145.949 Y79.325 E.01314
M73 Q5 S117
G1 X145.949 Y130.675 E1.61004
G1 X145.53 Y130.675 E.01314
M73 Q5 S116
G1 X145.53 Y79.325 E1.61004
G1 X145.111 Y79.325 E.01314
G1 X145.111 Y130.675 E1.61004
G1 X144.692 Y130.675 E.01314
G1 X144.692 Y79.325 E1.61004
G1 X144.273 Y79.325 E.01314
G1 X144.273 Y130.675 E1.61004
G1 X143.854 Y130.675 E.01314
G1 X143.854 Y79.325 E1.61004
G1 X143.435 Y79.325 E.01314
G1 X143.435 Y130.675 E1.61004
G1 X143.016 Y130.675 E.01314
G1 X143.016 Y79.325 E1.61004
G1 X142.597 Y79.325 E.01314
M73 P5 R113
G1 X142.597 Y130.675 E1.61004
G1 X142.178 Y130.675 E.01314
G1 X142.178 Y79.325 E1.61004
G1 X141.759 Y79.325 E.01314
G1 X141.759 Y130.675 E1.61004
G1 X141.34 Y130.675 E.01314
G1 X141.34 Y79.325 E1.61004
G1 X140.921 Y79.325 E.01314
G1 X140.921 Y130.675 E1.61004
G1 X140.502 Y130.675 E.01314
G1 X140.502 Y79.325 E1.61004
G1 X140.083 Y79.325 E.01314
G1 X140.083 Y130.675 E1.61004
G1 X139.664 Y130.675 E.01314
G1 X139.664 Y79.325 E1.61004
G1 X139.245 Y79.325 E.01314
G1 X139.245 Y130.675 E1.61004
G1 X138.826 Y130.675 E.01314
G1 X138.826 Y79.325 E1.61004
G1 X138.407 Y79.325 E.01314
G1 X138.407 Y130.675 E1.61004
G1 X137.988 Y130.675 E.01314
G1 X137.988 Y79.325 E1.61004
G1 X137.569 Y79.325 E.01314
G1 X137.569 Y130.675 E1.61004
G1 X137.15 Y130.675 E.01314
G1 X137.15 Y79.325 E1.61004
G1 X136.731 Y79.325 E.01314
G1 X136.731 Y130.675 E1.61004
G1 X136.312 Y130.675 E.01314
G1 X136.312 Y79.325 E1.61004
G1 X135.893 Y79.325 E.01314
M73 Q5 S115
G1 X135.893 Y130.675 E1.61004
G1 X135.474 Y130.675 E.01314
M73 P6 R113
G1 X135.474 Y79.325 E1.61004
G1 X135.055 Y79.325 E.01314
G1 X135.055 Y130.675 E1.61004
G1 X134.636 Y130.675 E.01314
G1 X134.636 Y79.325 E1.61004
G1 X134.217 Y79.325 E.01314
M73 Q6 S115
G1 X134.217 Y130.675 E1.61004
G1 X133.799 Y130.675 E.01311
G1 X133.799 Y79.325 E1.61004
G1 X133.38 Y79.325 E.01314
G1 X133.38 Y130.675 E1.61004
G1 X132.961 Y130.675 E.01314
M73 P6 R112
G1 X132.961 Y79.325 E1.61004
G1 X132.542 Y79.325 E.01314
G1 X132.542 Y130.675 E1.61004
G1 X132.123 Y130.675 E.01314
G1 X132.123 Y79.325 E1.61004
G1 X131.704 Y79.325 E.01314
G1 X131.704 Y130.675 E1.61004
G1 X131.285 Y130.675 E.01314
G1 X131.285 Y79.325 E1.61004
G1 X130.866 Y79.325 E.01314
G1 X130.866 Y130.675 E1.61004
G1 X130.447 Y130.675 E.01314
G1 X130.447 Y79.325 E1.61004
G1 X130.028 Y79.325 E.01314
G1 X130.028 Y130.675 E1.61004
G1 X129.609 Y130.675 E.01314
G1 X129.609 Y79.325 E1.61004
G1 X129.19 Y79.325 E.01314
G1 X129.19 Y130.675 E1.61004
G1 X128.771 Y130.675 E.01314
G1 X128.771 Y79.325 E1.61004
G1 X128.352 Y79.325 E.01314
G1 X128.352 Y130.675 E1.61004
G1 X127.933 Y130.675 E.01314
G1 X127.933 Y79.325 E1.61004
G1 X127.514 Y79.325 E.01314
G1 X127.514 Y130.675 E1.61004
G1 X127.095 Y130.675 E.01314
G1 X127.095 Y79.325 E1.61004
G1 X126.676 Y79.325 E.01314
G1 X126.676 Y130.675 E1.61004
G1 X126.257 Y130.675 E.01314
M73 Q6 S114
G1 X126.257 Y79.325 E1.61004
G1 X125.838 Y79.325 E.01314
G1 X125.838 Y130.675 E1.61004
G1 X125.419 Y130.675 E.01314
G1 X125.419 Y79.325 E1.61004
G1 X125 Y79.325 E.01314
G1 X125 Y130.675 E1.61004
G1 X124.581 Y130.675 E.01314
G1 X124.581 Y79.325 E1.61004
G1 X124.162 Y79.325 E.01314
G1 X124.162 Y130.675 E1.61004
G1 X123.743 Y130.675 E.01314
M73 P7 R112
G1 X123.743 Y79.325 E1.61004
G1 X123.324 Y79.325 E.01314
M73 P7 R111
G1 X123.324 Y130.675 E1.61004
G1 X122.905 Y130.675 E.01314
G1 X122.905 Y79.325 E1.61004
G1 X122.486 Y79.325 E.01314
G1 X122.486 Y130.675 E1.61004
G1 X122.067 Y130.675 E.01314
M73 Q7 S114
G1 X122.067 Y79.325 E1.61004
G1 X121.648 Y79.325 E.01314
G1 X121.648 Y130.675 E1.61004
G1 X121.229 Y130.675 E.01314
G1 X121.229 Y79.325 E1.61004
G1 X120.81 Y79.325 E.01314
G1 X120.81 Y130.675 E1.61004
G1 X120.391 Y130.675 E.01314
G1 X120.391 Y79.325 E1.61004
G1 X119.972 Y79.325 E.01314
