; generated by PrusaSlicer 2.8.0+win64 on 2024-07-22 at 12:37:21 UTC


;
;

;
;

;
;

;
;
; 

; external perimeters extrusion width = 0.45mm
; perimeters extrusion width = 0.45mm
; infill extrusion width = 0.45mm
; solid infill extrusion width = 0.45mm
; top infill extrusion width = 0.40mm
; support material extrusion width = 0.35mm
; first layer extrusion width = 0.42mm

M73 P0 R125
M73 Q0 S125
M201 X2500 Y2500 Z400 E5000 ; sets maximum accelerations, mm/sec^2
M203 X180 Y180 Z12 E80 ; sets maximum feedrates, mm / sec
M204 P2000 R1250 T2500 ; sets acceleration (P, T) and retract acceleration (R), mm/sec^2
M205 X8.00 Y8.00 Z2.00 E10.00 ; sets the jerk limits, mm/sec
M205 S0 T0 ; sets the minimum extruding and travel feed rate, mm/sec

M486 S0
M486 AjugglingGloveCap.stl
M486 S-1

;TYPE:Custom
M862.3 P "MINI" ; printer model check
G90 ; use absolute coordinates
M83 ; extruder relative mode
M104 S170 ; set extruder temp for bed leveling
M140 S60 ; set bed temp
M109 R170 ; wait for bed leveling temp
M190 S60 ; wait for bed temp
M204 T1250 ; set travel acceleration
G28 ; home all without mesh bed level
G29 ; mesh bed leveling 
M204 T2500 ; restore travel acceleration
M104 S215 ; set extruder temp
G92 E0
G1 Y-2 X179 F2400
G1 Z3 F720
M109 S215 ; wait for extruder temp

; intro line
G1 X170 F1000
G1 Z0.2 F720
G1 X110 E8 F900
M73 P0 R124
M73 Q0 S124
G1 X40 E10 F700
G92 E0

M221 S95 ; set flow
G21 ; set units to millimeters
G90 ; use absolute coordinates
M83 ; use relative distances for extrusion

M900 K0.2 ; Filament gcode LA 1.5
; ; Filament gcode LA 1.0




M107
;LAYER_CHANGE
;Z:0.2
;HEIGHT:0.2
G1 E-3.2 F4200
G1 Z.4 F720
G1 X17.079 Y61.935 F9000
G1 Z.2 F720
G1 E3.2 F2400
M204 P600
;TYPE:Skirt/Brim
;WIDTH:0.42
G1 F1200
G1 X17.844 Y61.797 E.02437
G1 X162.156 Y61.797 E4.5248
G1 X163.404 Y62.188 E.04101
G1 X164.206 Y63.221 E.041
G1 X164.344 Y63.986 E.02437
G1 X164.344 Y116.014 E1.6313
G1 X163.954 Y117.262 E.041
G1 X162.921 Y118.065 E.04102
G1 X162.156 Y118.203 E.02437
G1 X17.844 Y118.203 E4.5248
G1 X16.596 Y117.812 E.04101
G1 X15.794 Y116.779 E.041
G1 X15.656 Y116.014 E.02437
G1 X15.656 Y63.986 E1.6313
G1 X16.047 Y62.738 E.04101
G1 X17.032 Y61.972 E.03912
M204 P1000
G1 E-2.24 F4200
;WIPE_START
G1 F7200
G1 X17.079 Y61.935 E-.03315
G1 X17.844 Y61.797 E-.43078
G1 X18.739 Y61.797 E-.49607
;WIPE_END
G1 Z.4 F720
M486 S0
G1 X162.156 Y116.014 F9000
G1 Z.2 F720
G1 E3.2 F2400
M204 P600
;TYPE:Support material
G1 F1200
G1 X17.844 Y116.014 E4.5248
G1 X17.844 Y63.986 E1.6313
G1 X162.156 Y63.986 E4.5248
G1 X162.156 Y115.958 E1.62955
M204 P1000
G1 E-2.24 F4200
;WIPE_START
G1 F7200
G1 X162.156 Y114.226 E-.96
;WIPE_END
G1 Z.4 F720
G1 X65.801 Y101.77 F9000
G1 Z.2 F720
G1 E3.2 F2400
M204 P600
G1 F1200
G1 X67.949 Y101.77 E.06735
G1 X68.23 Y102.051 E.01246
G1 X68.23 Y109.449 E.23196
G1 X67.949 Y109.73 E.01246
G1 X60.551 Y109.73 E.23196
G1 X60.27 Y109.449 E.01246
G1 X60.27 Y107.301 E.06735
G1 X60.551 Y107.02 E.01246
G1 X65.52 Y107.02 E.1558
G1 X65.52 Y102.051 E.1558
G1 X65.761 Y101.81 E.01069
M204 P1000
G1 X65.761 Y101.81 F9000
G1 X24.801 Y101.77
M204 P600
G1 F1200
G1 X26.949 Y101.77 E.06735
G1 X27.23 Y102.051 E.01246
G1 X27.23 Y107.02 E.1558
G1 X32.199 Y107.02 E.1558
G1 X32.48 Y107.301 E.01246
G1 X32.48 Y109.449 E.06735
G1 X32.199 Y109.73 E.01246
G1 X24.801 Y109.73 E.23196
G1 X24.52 Y109.449 E.01246
G1 X24.52 Y102.051 E.23196
G1 X24.761 Y101.81 E.01069
M204 P1000
G1 E-2.24 F4200
;WIPE_START
G1 F7200
G1 X24.52 Y102.051 E-.18887
G1 X24.52 Y103.442 E-.77113
;WIPE_END
G1 Z.4 F720
G1 X24.801 Y70.02 F9000
G1 Z.2 F720
G1 E3.2 F2400
M204 P600
G1 F1200
G1 X32.199 Y70.02 E.23196
G1 X32.48 Y70.301 E.01246
G1 X32.48 Y72.449 E.06735
G1 X32.199 Y72.73 E.01246
G1 X27.23 Y72.73 E.1558
G1 X27.23 Y77.699 E.1558
G1 X26.949 Y77.98 E.01246
G1 X24.801 Y77.98 E.06735
G1 X24.52 Y77.699 E.01246
G1 X24.52 Y70.301 E.23196
G1 X24.761 Y70.06 E.01069
M204 P1000
G1 X24.761 Y70.06 F9000
G1 X60.551 Y70.02
M204 P600
G1 F1200
G1 X67.949 Y70.02 E.23196
G1 X68.23 Y70.301 E.01246
G1 X68.23 Y77.699 E.23196
G1 X67.949 Y77.98 E.01246
M73 P0 R123
M73 Q0 S123
G1 X65.801 Y77.98 E.06735
G1 X65.52 Y77.699 E.01246
G1 X65.52 Y72.73 E.1558
G1 X60.551 Y72.73 E.1558
G1 X60.27 Y72.449 E.01246
G1 X60.27 Y70.301 E.06735
G1 X60.511 Y70.06 E.01069
M204 P1000
G1 E-2.24 F4200
;WIPE_START
G1 F7200
G1 X60.27 Y70.301 E-.18887
G1 X60.27 Y71.692 E-.77113
;WIPE_END
G1 Z.4 F720
G1 X161.645 Y115.845 F9000
G1 Z.2 F720
G1 E3.2 F2400
M204 P600
G1 F1200
G1 X161.645 Y64.325 E1.61537
G1 X161.226 Y64.325 E.01314
G1 X161.226 Y115.675 E1.61004
G1 X160.807 Y115.675 E.01314
G1 X160.807 Y64.325 E1.61004
G1 X160.388 Y64.325 E.01314
M73 P1 R123
M73 Q1 S123
G1 X160.388 Y115.675 E1.61004
G1 X159.969 Y115.675 E.01314
G1 X159.969 Y64.325 E1.61004
G1 X159.55 Y64.325 E.01314
G1 X159.55 Y115.675 E1.61004
G1 X159.131 Y115.675 E.01314
G1 X159.131 Y64.325 E1.61004
G1 X158.712 Y64.325 E.01314
G1 X158.712 Y115.675 E1.61004
G1 X158.293 Y115.675 E.01314
G1 X158.293 Y64.325 E1.61004
G1 X157.874 Y64.325 E.01314
G1 X157.874 Y115.675 E1.61004
G1 X157.455 Y115.675 E.01314
G1 X157.455 Y64.325 E1.61004
G1 X157.036 Y64.325 E.01314
G1 X157.036 Y115.675 E1.61004
G1 X156.617 Y115.675 E.01314
G1 X156.617 Y64.325 E1.61004
G1 X156.198 Y64.325 E.01314
G1 X156.198 Y115.675 E1.61004
G1 X155.779 Y115.675 E.01314
G1 X155.779 Y64.325 E1.61004
G1 X155.36 Y64.325 E.01314
G1 X155.36 Y115.675 E1.61004
G1 X154.941 Y115.675 E.01314
G1 X154.941 Y64.325 E1.61004
G1 X154.522 Y64.325 E.01314
G1 X154.522 Y115.675 E1.61004
G1 X154.103 Y115.675 E.01314
G1 X154.103 Y64.325 E1.61004
G1 X153.685 Y64.325 E.01311
G1 X153.685 Y115.675 E1.61004
G1 X153.266 Y115.675 E.01314
G1 X153.266 Y64.325 E1.61004
G1 X152.847 Y64.325 E.01314
G1 X152.847 Y115.675 E1.61004
G1 X152.428 Y115.675 E.01314
G1 X152.428 Y64.325 E1.61004
G1 X152.009 Y64.325 E.01314
M73 P1 R122
M73 Q1 S122
G1 X152.009 Y115.675 E1.61004
G1 X151.59 Y115.675 E.01314
G1 X151.59 Y64.325 E1.61004
G1 X151.171 Y64.325 E.01314
G1 X151.171 Y115.675 E1.61004
G1 X150.752 Y115.675 E.01314
G1 X150.752 Y64.325 E1.61004
G1 X150.333 Y64.325 E.01314
G1 X150.333 Y115.675 E1.61004
G1 X149.914 Y115.675 E.01314
G1 X149.914 Y64.325 E1.61004
G1 X149.495 Y64.325 E.01314
G1 X149.495 Y115.675 E1.61004
G1 X149.076 Y115.675 E.01314
G1 X149.076 Y64.325 E1.61004
G1 X148.657 Y64.325 E.01314
G1 X148.657 Y115.675 E1.61004
G1 X148.238 Y115.675 E.01314
M73 P2 R122
M73 Q2 S122
G1 X148.238 Y64.325 E1.61004
G1 X147.819 Y64.325 E.01314
G1 X147.819 Y115.675 E1.61004
G1 X147.4 Y115.675 E.01314
G1 X147.4 Y64.325 E1.61004
G1 X146.981 Y64.325 E.01314
G1 X146.981 Y115.675 E1.61004
G1 X146.562 Y115.675 E.01314
G1 X146.562 Y64.325 E1.61004
G1 X146.143 Y64.325 E.01314
G1 X146.143 Y115.675 E1.61004
G1 X145.724 Y115.675 E.01314
G1 X145.724 Y64.325 E1.61004
G1 X145.305 Y64.325 E.01314
G1 X145.305 Y115.675 E1.61004
G1 X144.886 Y115.675 E.01314
G1 X144.886 Y64.325 E1.61004
G1 X144.467 Y64.325 E.01314
G1 X144.467 Y115.675 E1.61004
G1 X144.048 Y115.675 E.01314
G1 X144.048 Y64.325 E1.61004
G1 X143.629 Y64.325 E.01314
G1 X143.629 Y115.675 E1.61004
G1 X143.21 Y115.675 E.01314
G1 X143.21 Y64.325 E1.61004
G1 X142.791 Y64.325 E.01314
G1 X142.791 Y115.675 E1.61004
G1 X142.372 Y115.675 E.01314
M73 P2 R121
M73 Q2 S121
G1 X142.372 Y64.325 E1.61004
G1 X141.953 Y64.325 E.01314
G1 X141.953 Y115.675 E1.61004
G1 X141.534 Y115.675 E.01314
G1 X141.534 Y64.325 E1.61004
G1 X141.115 Y64.325 E.01314
G1 X141.115 Y115.675 E1.61004
G1 X140.696 Y115.675 E.01314
G1 X140.696 Y64.325 E1.61004
G1 X140.277 Y64.325 E.01314
G1 X140.277 Y115.675 E1.61004
G1 X139.858 Y115.675 E.01314
G1 X139.858 Y64.325 E1.61004
G1 X139.439 Y64.325 E.01314
G1 X139.439 Y115.675 E1.61004
G1 X139.02 Y115.675 E.01314
G1 X139.02 Y64.325 E1.61004
G1 X138.601 Y64.325 E.01314
G1 X138.601 Y115.675 E1.61004
G1 X138.182 Y115.675 E.01314
G1 X138.182 Y64.325 E1.61004
G1 X137.763 Y64.325 E.01314
G1 X137.763 Y115.675 E1.61004
G1 X137.344 Y115.675 E.01314
G1 X137.344 Y64.325 E1.61004
G1 X136.925 Y64.325 E.01314
G1 X136.925 Y115.675 E1.61004
G1 X136.506 Y115.675 E.01314
G1 X136.506 Y64.325 E1.61004
G1 X136.087 Y64.325 E.01314
M73 P3 R121
M73 Q3 S121
G1 X136.087 Y115.675 E1.61004
G1 X135.668 Y115.675 E.01314
G1 X135.668 Y64.325 E1.61004
G1 X135.25 Y64.325 E.01311
G1 X135.25 Y115.675 E1.61004
G1 X134.831 Y115.675 E.01314
G1 X134.831 Y64.325 E1.61004
G1 X134.412 Y64.325 E.01314
G1 X134.412 Y115.675 E1.61004
G1 X133.993 Y115.675 E.01314
G1 X133.993 Y64.325 E1.61004
G1 X133.574 Y64.325 E.01314
G1 X133.574 Y115.675 E1.61004
G1 X133.155 Y115.675 E.01314
G1 X133.155 Y64.325 E1.61004
G1 X132.736 Y64.325 E.01314
M73 P3 R120
M73 Q3 S120
G1 X132.736 Y115.675 E1.61004
G1 X132.317 Y115.675 E.01314
G1 X132.317 Y64.325 E1.61004
G1 X131.898 Y64.325 E.01314
G1 X131.898 Y115.675 E1.61004
G1 X131.479 Y115.675 E.01314
G1 X131.479 Y64.325 E1.61004
G1 X131.06 Y64.325 E.01314
G1 X131.06 Y115.675 E1.61004
G1 X130.641 Y115.675 E.01314
G1 X130.641 Y64.325 E1.61004
G1 X130.222 Y64.325 E.01314
G1 X130.222 Y115.675 E1.61004
G1 X129.803 Y115.675 E.01314
G1 X129.803 Y64.325 E1.61004
G1 X129.384 Y64.325 E.01314
G1 X129.384 Y115.675 E1.61004
G1 X128.965 Y115.675 E.01314
G1 X128.965 Y64.325 E1.61004
G1 X128.546 Y64.325 E.01314
G1 X128.546 Y115.675 E1.61004
G1 X128.127 Y115.675 E.01314
G1 X128.127 Y64.325 E1.61004
G1 X127.708 Y64.325 E.01314
G1 X127.708 Y115.675 E1.61004
G1 X127.289 Y115.675 E.01314
G1 X127.289 Y64.325 E1.61004
G1 X126.87 Y64.325 E.01314
G1 X126.87 Y115.675 E1.61004
G1 X126.451 Y115.675 E.01314
G1 X126.451 Y64.325 E1.61004
G1 X126.032 Y64.325 E.01314
G1 X126.032 Y115.675 E1.61004
G1 X125.613 Y115.675 E.01314
G1 X125.613 Y64.325 E1.61004
G1 X125.194 Y64.325 E.01314
G1 X125.194 Y115.675 E1.61004
G1 X124.775 Y115.675 E.01314
G1 X124.775 Y64.325 E1.61004
G1 X124.356 Y64.325 E.01314
G1 X124.356 Y115.675 E1.61004
G1 X123.937 Y115.675 E.01314
M73 P4 R120
M73 Q4 S120
G1 X123.937 Y64.325 E1.61004
G1 X123.518 Y64.325 E.01314
G1 X123.518 Y115.675 E1.61004
G1 X123.099 Y115.675 E.01314
M73 P4 R119
M73 Q4 S119
G1 X123.099 Y64.325 E1.61004
G1 X122.68 Y64.325 E.01314
G1 X122.68 Y115.675 E1.61004
G1 X122.261 Y115.675 E.01314
G1 X122.261 Y64.325 E1.61004
G1 X121.842 Y64.325 E.01314
G1 X121.842 Y115.675 E1.61004
G1 X121.423 Y115.675 E.01314
G1 X121.423 Y64.325 E1.61004
G1 X121.004 Y64.325 E.01314
G1 X121.004 Y115.675 E1.61004
G1 X120.585 Y115.675 E.01314
G1 X120.585 Y64.325 E1.61004
G1 X120.166 Y64.325 E.01314
G1 X120.166 Y115.675 E1.61004
G1 X119.747 Y115.675 E.01314
G1 X119.747 Y64.325 E1.61004
G1 X119.328 Y64.325 E.01314
G1 X119.328 Y115.675 E1.61004
G1 X118.909 Y115.675 E.01314
G1 X118.909 Y64.325 E1.61004
G1 X118.49 Y64.325 E.01314
G1 X118.49 Y115.675 E1.61004
G1 X118.071 Y115.675 E.01314
G1 X118.071 Y64.325 E1.61004
G1 X117.652 Y64.325 E.01314
G1 X117.652 Y115.675 E1.61004
G1 X117.234 Y115.675 E.01311
G1 X117.234 Y64.325 E1.61004
G1 X116.815 Y64.325 E.01314
G1 X116.815 Y115.675 E1.61004
G1 X116.396 Y115.675 E.01314
G1 X116.396 Y64.325 E1.61004
G1 X115.977 Y64.325 E.01314
G1 X115.977 Y115.675 E1.61004
G1 X115.558 Y115.675 E.01314
G1 X115.558 Y64.325 E1.61004
G1 X115.139 Y64.325 E.01314
G1 X115.139 Y115.675 E1.61004
G1 X114.72 Y115.675 E.01314
G1 X114.72 Y64.325 E1.61004
G1 X114.301 Y64.325 E.01314
G1 X114.301 Y115.675 E1.61004
G1 X113.882 Y115.675 E.01314
G1 X113.882 Y64.325 E1.61004
G1 X113.463 Y64.325 E.01314
M73 P4 R118
M73 Q4 S118
G1 X113.463 Y115.675 E1.61004
G1 X113.044 Y115.675 E.01314
G1 X113.044 Y64.325 E1.61004
G1 X112.625 Y64.325 E.01314
G1 X112.625 Y115.675 E1.61004
G1 X112.206 Y115.675 E.01314
M73 P5 R118
M73 Q5 S118
G1 X112.206 Y64.325 E1.61004
G1 X111.787 Y64.325 E.01314
G1 X111.787 Y115.675 E1.61004
G1 X111.368 Y115.675 E.01314
G1 X111.368 Y64.325 E1.61004
G1 X110.949 Y64.325 E.01314
G1 X110.949 Y115.675 E1.61004
G1 X110.53 Y115.675 E.01314
G1 X110.53 Y64.325 E1.61004
G1 X110.111 Y64.325 E.01314
G1 X110.111 Y115.675 E1.61004
G1 X109.692 Y115.675 E.01314
G1 X109.692 Y64.325 E1.61004
G1 X109.273 Y64.325 E.01314
G1 X109.273 Y115.675 E1.61004
G1 X108.854 Y115.675 E.01314
G1 X108.854 Y64.325 E1.61004
G1 X108.435 Y64.325 E.01314
G1 X108.435 Y115.675 E1.61004
G1 X108.016 Y115.675 E.01314
G1 X108.016 Y64.325 E1.61004
G1 X107.597 Y64.325 E.01314
G1 X107.597 Y115.675 E1.61004
G1 X107.178 Y115.675 E.01314
G1 X107.178 Y64.325 E1.61004
G1 X106.759 Y64.325 E.01314
G1 X106.759 Y115.675 E1.61004
G1 X106.34 Y115.675 E.01314
G1 X106.34 Y64.325 E1.61004
G1 X105.921 Y64.325 E.01314
G1 X105.921 Y115.675 E1.61004
G1 X105.502 Y115.675 E.01314
G1 X105.502 Y64.325 E1.61004
G1 X105.083 Y64.325 E.01314
G1 X105.083 Y115.675 E1.61004
G1 X104.664 Y115.675 E.01314
G1 X104.664 Y64.325 E1.61004
G1 X104.245 Y64.325 E.01314
G1 X104.245 Y115.675 E1.61004
G1 X103.826 Y115.675 E.01314
M73 P5 R117
M73 Q5 S117
G1 X103.826 Y64.325 E1.61004
G1 X103.407 Y64.325 E.01314
G1 X103.407 Y115.675 E1.61004
G1 X102.988 Y115.675 E.01314
G1 X102.988 Y64.325 E1.61004
G1 X102.569 Y64.325 E.01314
G1 X102.569 Y115.675 E1.61004
G1 X102.15 Y115.675 E.01314
G1 X102.15 Y64.325 E1.61004
G1 X101.731 Y64.325 E.01314
G1 X101.731 Y115.675 E1.61004
G1 X101.312 Y115.675 E.01314
G1 X101.312 Y64.325 E1.61004
G1 X100.893 Y64.325 E.01314
G1 X100.893 Y115.675 E1.61004
G1 X100.474 Y115.675 E.01314
G1 X100.474 Y64.325 E1.61004
G1 X100.055 Y64.325 E.01314
M73 P6 R117
M73 Q6 S117
G1 X100.055 Y115.675 E1.61004
G1 X99.636 Y115.675 E.01314
G1 X99.636 Y64.325 E1.61004
G1 X99.217 Y64.325 E.01314
G1 X99.217 Y115.675 E1.61004
G1 X98.799 Y115.675 E.01311
G1 X98.799 Y64.325 E1.61004
G1 X98.38 Y64.325 E.01314
G1 X98.38 Y115.675 E1.61004
G1 X97.961 Y115.675 E.01314
G1 X97.961 Y64.325 E1.61004
G1 X97.542 Y64.325 E.01314
G1 X97.542 Y115.675 E1.61004
G1 X97.123 Y115.675 E.01314
G1 X97.123 Y64.325 E1.61004
G1 X96.704 Y64.325 E.01314
G1 X96.704 Y115.675 E1.61004
G1 X96.285 Y115.675 E.01314
G1 X96.285 Y64.325 E1.61004
G1 X95.866 Y64.325 E.01314
G1 X95.866 Y115.675 E1.61004
G1 X95.447 Y115.675 E.01314
G1 X95.447 Y64.325 E1.61004
G1 X95.028 Y64.325 E.01314
G1 X95.028 Y115.675 E1.61004
G1 X94.609 Y115.675 E.01314
G1 X94.609 Y64.325 E1.61004
M73 P6 R116
M73 Q6 S116
G1 X94.19 Y64.325 E.01314
G1 X94.19 Y115.675 E1.61004
G1 X93.771 Y115.675 E.01314
G1 X93.771 Y64.325 E1.61004
G1 X93.352 Y64.325 E.01314
G1 X93.352 Y115.675 E1.61004
G1 X92.933 Y115.675 E.01314
G1 X92.933 Y64.325 E1.61004
G1 X92.514 Y64.325 E.01314
G1 X92.514 Y115.675 E1.61004
G1 X92.095 Y115.675 E.01314
G1 X92.095 Y64.325 E1.61004
G1 X91.676 Y64.325 E.01314
G1 X91.676 Y115.675 E1.61004
G1 X91.257 Y115.675 E.01314
G1 X91.257 Y64.325 E1.61004
G1 X90.838 Y64.325 E.01314
G1 X90.838 Y115.675 E1.61004
G1 X90.419 Y115.675 E.01314
G1 X90.419 Y64.325 E1.61004
G1 X90 Y64.325 E.01314
G1 X90 Y115.675 E1.61004
G1 X89.581 Y115.675 E.01314
G1 X89.581 Y64.325 E1.61004
G1 X89.162 Y64.325 E.01314
G1 X89.162 Y115.675 E1.61004
G1 X88.743 Y115.675 E.01314
G1 X88.743 Y64.325 E1.61004
G1 X88.324 Y64.325 E.01314
G1 X88.324 Y115.675 E1.61004
G1 X87.905 Y115.675 E.01314
M73 P7 R116
M73 Q7 S116
G1 X87.905 Y64.325 E1.61004
G1 X87.486 Y64.325 E.01314
G1 X87.486 Y115.675 E1.61004
G1 X87.067 Y115.675 E.01314
G1 X87.067 Y64.325 E1.61004
G1 X86.648 Y64.325 E.01314
G1 X86.648 Y115.675 E1.61004
G1 X86.229 Y115.675 E.01314
G1 X86.229 Y64.325 E1.61004
G1 X85.81 Y64.325 E.01314
G1 X85.81 Y115.675 E1.61004
G1 X85.391 Y115.675 E.01314
G1 X85.391 Y64.325 E1.61004
G1 X84.972 Y64.325 E.01314
M73 P7 R115
M73 Q7 S115
G1 X84.972 Y115.675 E1.61004
G1 X84.553 Y115.675 E.01314
G1 X84.553 Y64.325 E1.61004
G1 X84.134 Y64.325 E.01314
G1 X84.134 Y115.675 E1.61004
G1 X83.715 Y115.675 E.01314
G1 X83.715 Y64.325 E1.61004
G1 X83.296 Y64.325 E.01314
G1 X83.296 Y115.675 E1.61004
G1 X82.877 Y115.675 E.01314
G1 X82.877 Y64.325 E1.61004
G1 X82.458 Y64.325 E.01314
G1 X82.458 Y115.675 E1.61004
G1 X82.039 Y115.675 E.01314
G1 X82.039 Y64.325 E1.61004
G1 X81.62 Y64.325 E.01314
G1 X81.62 Y115.675 E1.61004
G1 X81.201 Y115.675 E.01314
G1 X81.201 Y64.325 E1.61004
G1 X80.783 Y64.325 E.01311
G1 X80.783 Y115.675 E1.61004
G1 X80.364 Y115.675 E.01314
G1 X80.364 Y64.325 E1.61004
G1 X79.945 Y64.325 E.01314
G1 X79.945 Y115.675 E1.61004
